icons/mimetypes/64/application-octet-stream.svg

<?xml version="1.0" encoding="UTF-8" standalone="no"?>
<svg
   xmlns:dc="http://purl.org/dc/elements/1.1/"
   xmlns:cc="http://creativecommons.org/ns#"
   xmlns:rdf="http://www.w3.org/1999/02/22-rdf-syntax-ns#"
   xmlns:svg="http://www.w3.org/2000/svg"
   xmlns="http://www.w3.org/2000/svg"
   xmlns:xlink="http://www.w3.org/1999/xlink"
   xmlns:sodipodi="http://sodipodi.sourceforge.net/DTD/sodipodi-0.dtd"
   xmlns:inkscape="http://www.inkscape.org/namespaces/inkscape"
   width="64"
   version="1.1"
   viewBox="0 0 64 64"
   height="64"
   id="svg2"
   inkscape:version="0.91 r13725"
   sodipodi:docname="application-octet-stream.svg">
  <sodipodi:namedview
     pagecolor="#ffffff"
     bordercolor="#666666"
     borderopacity="1"
     objecttolerance="10"
     gridtolerance="10"
     guidetolerance="10"
     inkscape:pageopacity="0"
     inkscape:pageshadow="2"
     inkscape:window-width="1360"
     inkscape:window-height="708"
     id="namedview25"
     showgrid="false"
     inkscape:zoom="3.6875"
     inkscape:cx="-7.3220339"
     inkscape:cy="32"
     inkscape:window-x="0"
     inkscape:window-y="0"
     inkscape:window-maximized="1"
     inkscape:current-layer="svg2" />
  <defs
     id="defs4">
    <linearGradient
       inkscape:collect="always"
       xlink:href="#linearGradient4300-7-5"
       id="linearGradient4306-5"
       y1="61"
       y2="3"
       x2="0"
       gradientUnits="userSpaceOnUse"
       gradientTransform="matrix(1,0,0,-1,0,64)" />
    <linearGradient
       inkscape:collect="always"
       id="linearGradient4300-7-5">
      <stop
         style="stop-color:#5e6b78;stop-opacity:1"
         offset="0"
         id="stop4302-2-4" />
      <stop
         style="stop-color:#768492;stop-opacity:1"
         offset="1"
         id="stop4304-4-4" />
    </linearGradient>
    <linearGradient
       inkscape:collect="always"
       xlink:href="#linearGradient4351-8"
       id="linearGradient4357-8"
       y1="61"
       y2="47"
       x2="0"
       gradientUnits="userSpaceOnUse"
       gradientTransform="matrix(1,0,0,-1,0,64)" />
    <linearGradient
       id="linearGradient4351-8"
       inkscape:collect="always">
      <stop
         id="stop4353-5"
         offset="0"
         style="stop-color:#dedede;stop-opacity:1" />
      <stop
         id="stop4355-8"
         offset="1"
         style="stop-color:#fbfbfb;stop-opacity:1" />
    </linearGradient>
    <linearGradient
       inkscape:collect="always"
       xlink:href="#linearGradient4410"
       id="linearGradient4427-5"
       y1="17"
       x1="40"
       y2="31"
       x2="54"
       gradientUnits="userSpaceOnUse" />
    <linearGradient
       inkscape:collect="always"
       id="linearGradient4410">
      <stop
         style="stop-color:#383e51;stop-opacity:1"
         offset="0"
         id="stop4412" />
      <stop
         style="stop-color:#655c6f;stop-opacity:0"
         offset="1"
         id="stop4414" />
    </linearGradient>
  </defs>
  <metadata
     id="metadata84">
    <rdf:RDF>
      <cc:Work
         rdf:about="">
        <dc:format>image/svg+xml</dc:format>
        <dc:type
           rdf:resource="http://purl.org/dc/dcmitype/StillImage" />
      </cc:Work>
    </rdf:RDF>
  </metadata>
  <path
     inkscape:connector-curvature="0"
     style="fill:url(#linearGradient4306-5);fill-opacity:1"
     id="rect3500-9"
     d="m 10,61 0,-58 30,0 14,14 0,30 0,14 -14,0 -30,0 z" />
  <rect
     width="30"
     x="10"
     y="-4"
     height="1"
     style="fill:#ffffff;fill-opacity:0.41176471"
     id="rect4169-2"
     transform="scale(1,-1)" />
  <rect
     width="44"
     x="10"
     y="-61"
     height="1"
     style="fill:#2e3132;fill-opacity:0.29411765"
     id="rect4236-8"
     transform="scale(1,-1)" />
  <path
     inkscape:connector-curvature="0"
     style="fill:url(#linearGradient4357-8);fill-opacity:1;fill-rule:evenodd;opacity:0.75"
     id="path4314-9"
     d="M 54,17 40,3 40,17 Z" />
  <path
     inkscape:connector-curvature="0"
     style="opacity:0.2;fill:url(#linearGradient4427-5);fill-rule:evenodd"
     id="path4320-7"
     d="M 40,17 54,31 54,17 Z" />
  <path
     style="fill:#fbfbfb;fill-rule:evenodd;opacity:0.75"
     d="m 21,22 0,22 22,0 0,-22 -22,0 z m 1,5 20,0 0,16 -20,0 0,-16 z m 10.5,2 c -0.97222,0 -1.880002,0.340939 -2.519531,0.980469 C 29.340939,30.619998 29,31.52778 29,32.5 l 2,0 c 0,-0.527775 0.159067,-0.869999 0.394531,-1.105469 C 31.630001,31.159061 31.972225,31 32.5,31 c 0.52778,0 0.869998,0.159061 1.105469,0.394531 C 33.840939,31.630001 34,31.972225 34,32.5 c 0,0.458335 -0.09035,0.653322 -0.210938,0.826172 -0.521275,0.525906 -1.151711,0.975552 -1.658203,1.40625 C 31.559185,35.161646 31,35.724382 31,36.5 l 0,0.5 2,0 0,-0.5 c 0.71082,-0.727657 1.770257,-1.362163 2.429688,-2.029297 C 35.777848,33.971673 36,33.29167 36,32.5 36,31.52778 35.659067,30.619999 35.019531,29.980469 34.380001,29.340939 33.472225,29 32.5,29 Z m -1.5,10 0,2 2,0 0,-2 -2,0 z"
     id="path4171"
     inkscape:connector-curvature="0" />
</svg>

<svg width="64" xmlns="http://www.w3.org/2000/svg" viewBox="0 0 64 64" height="64">
 <defs>
  <linearGradient id="a" y1="61" y2="3" x2="0" gradientUnits="userSpaceOnUse" gradientTransform="matrix(1 0 0-1 0 64)">
   <stop stop-color="#5e6b78"/>
   <stop offset="1" stop-color="#768492"/>
  </linearGradient>
  <linearGradient id="b" y1="61" y2="47" x2="0" gradientUnits="userSpaceOnUse" gradientTransform="matrix(1 0 0-1 0 64)">
   <stop stop-color="#dedede"/>
   <stop offset="1" stop-color="#fbfbfb"/>
  </linearGradient>
  <linearGradient id="c" y1="17" x1="40" y2="31" x2="54" gradientUnits="userSpaceOnUse">
   <stop stop-color="#383e51"/>
   <stop offset="1" stop-color="#655c6f" stop-opacity="0"/>
  </linearGradient>
 </defs>
 <path fill="url(#a)" d="m10 61v-58h30l14 14v44h-14z"/>
 <g transform="scale(1-1)">
  <rect width="30" x="10" y="-4" fill="#ffffff" height="1" fill-opacity=".412"/>
  <rect width="44" x="10" y="-61" fill="#2e3132" height="1" fill-opacity=".294"/>
 </g>
 <g fill-rule="evenodd">
  <path opacity=".75" fill="url(#b)" d="m54 17l-14-14v14z"/>
  <path opacity=".2" fill="url(#c)" d="m40 17l14 14v-14z"/>
  <path opacity=".75" fill="#fbfbfb" d="m21 22v22h22v-22zm1 5h20v16h-20zm10.5 2c-.972 0-1.88.341-2.52.98-.64.64-.98 1.547-.98 2.52h2c0-.528.159-.87.395-1.105.235-.235.578-.395 1.105-.395.528 0 .87.159 1.105.395.235.235.395.578.395 1.105 0 .458-.09.653-.211.826-.521.526-1.152.976-1.658 1.406-.572.429-1.131.992-1.131 1.768v.5h2v-.5c.711-.728 1.77-1.362 2.43-2.029.348-.499.57-1.179.57-1.971 0-.972-.341-1.88-.98-2.52-.64-.64-1.547-.98-2.52-.98m-1.5 10v2h2v-2z"/>
 </g>
</svg>
